static/images/footer/vk.svg

<svg width="36" height="36" fill="none" xmlns="http://www.w3.org/2000/svg"><path d="M31.2 11.61c.195-.63 0-1.11-.93-1.11h-3.03c-.78 0-1.125.405-1.32.855 0 0-1.545 3.765-3.735 6.225-.72.705-1.035.93-1.425.93-.195 0-.51-.225-.51-.87v-6.03c0-.765-.18-1.11-.825-1.11H14.64c-.48 0-.765.36-.765.705 0 .72 1.125.9 1.2 2.955v4.47c0 .99-.18 1.17-.555 1.17-1.02 0-3.54-3.795-5.025-8.115-.3-.84-.585-1.185-1.365-1.185H5.085c-.855 0-1.035.405-1.035.855 0 .81 1.035 4.8 4.8 10.08C11.355 25.05 14.895 27 18.12 27c1.935 0 2.175-.435 2.175-1.185v-2.73c0-.855.18-1.035.795-1.035.45 0 1.215.225 3.015 1.95 2.07 2.07 2.4 3 3.57 3h3.03c.87 0 1.305-.435 1.065-1.29-.27-.855-1.26-2.1-2.565-3.57-.705-.825-1.77-1.725-2.1-2.19-.45-.57-.315-.825 0-1.35 0 0 3.705-5.205 4.095-6.99z" fill="#fff"/></svg>

<svg width="36" height="36" viewBox="0 0 36 36" fill="none" xmlns="http://www.w3.org/2000/svg">
<path d="M31.2 11.61C31.395 10.98 31.2 10.5 30.27 10.5H27.24C26.46 10.5 26.115 10.905 25.92 11.355C25.92 11.355 24.375 15.12 22.185 17.58C21.465 18.285 21.15 18.51 20.76 18.51C20.565 18.51 20.25 18.285 20.25 17.64V11.61C20.25 10.845 20.07 10.5 19.425 10.5H14.64C14.16 10.5 13.875 10.86 13.875 11.205C13.875 11.925 15 12.105 15.075 14.16V18.63C15.075 19.62 14.895 19.8 14.52 19.8C13.5 19.8 10.98 16.005 9.49499 11.685C9.19499 10.845 8.90999 10.5 8.12999 10.5H5.08499C4.22999 10.5 4.04999 10.905 4.04999 11.355C4.04999 12.165 5.08499 16.155 8.84999 21.435C11.355 25.05 14.895 27 18.12 27C20.055 27 20.295 26.565 20.295 25.815V23.085C20.295 22.23 20.475 22.05 21.09 22.05C21.54 22.05 22.305 22.275 24.105 24C26.175 26.07 26.505 27 27.675 27H30.705C31.575 27 32.01 26.565 31.77 25.71C31.5 24.855 30.51 23.61 29.205 22.14C28.5 21.315 27.435 20.415 27.105 19.95C26.655 19.38 26.79 19.125 27.105 18.6C27.105 18.6 30.81 13.395 31.2 11.61Z" fill="white"/>
</svg>
